X: 1
T: Tuttle's Reel \`a la Kevin Burke
T: Mills are Grinding
T: Customs Gap
S: Tunes 'N Stuff with Audrey Knuth 2020-4-11
F: http://www.irishtradmusic.org/100jigsreels.ABC
M: C|
L: 1/8
R: reel
Z: 2021 John Chambers
K: Ddor
|:\
"Dm"uA,DD(E JFE)"^>"F(G | Ac)"^>"Gc "^>"Aud-~d2 | (D^CD)(E FD)udB | "C"({B}uc2A)(G FD)(EC |
"Dm"A,)D"^>"D(vE FE)"^>"F(G | Ac)"^>"G(c Ad){e}"^>"de | fd"^>"e(vd {e}dc)(AB | "C"c)A"^>"G(E "Dm"{G}ED)E[Cc] :|
|:\
("Dm"Jvd2{e}dA) "C"u[c3E3]d | "Dm"A(d{e}"^>"dB) ("C"cAG)c | "Dm"A(d{e}dB) "C"u[c3G3]A | GE"^>"c(vE "Dm"{G}ED (3E^FG) |
("Dm"Ad{e}d)(B "C"c2)(~c2 | "Dm"A)d-~d2 "C"cAGA | ("Dm"ueJfe)(d {e}d"^>"c)(AB | "C"{d}c)AG(E "Dm"{G}ED)D[cC] :|
